pype/resources/ftrack/action_icons/PrepareProject.svg

<?xml version="1.0" ?>
<svg enable-background="new 0 0 512 512" id="Layer_1" version="1.1" viewBox="0 0 512 512" xml:space="preserve" xmlns="http://www.w3.org/2000/svg" xmlns:xlink="http://www.w3.org/1999/xlink">
    <g>
        <g>
            <linearGradient gradientUnits="userSpaceOnUse" id="SVGID_1_" x1="-0.0000027" x2="512" y1="256" y2="256">
                <stop offset="0" style="stop-color:#A364AB"/>
                <stop offset="1" style="stop-color:#8C3D96"/>
            </linearGradient>
            <circle cx="256" cy="256" fill="url(#SVGID_1_)" r="256"/>
            <linearGradient gradientUnits="userSpaceOnUse" id="SVGID_2_" x1="42.6666641" x2="469.3333435" y1="256.0005188" y2="256.0005188">
                <stop offset="0" style="stop-color:#8C3D96"/>
                <stop offset="1" style="stop-color:#A364AB"/>
            </linearGradient>
            <path d="M256,469.3338623c-117.6315155,0-213.3333435-95.7018738-213.3333435-213.3333435    S138.3684845,42.6671982,256,42.6671982c117.6356812,0,213.3333435,95.7018661,213.3333435,213.333313    S373.6356812,469.3338623,256,469.3338623z" fill="url(#SVGID_2_)"/>
        </g>

        <path id="Shadow"
              opacity="0.3"
              d="M 320.92,166.77
                 C 320.92,166.77 282.98,166.77 282.98,166.77
                   282.98,166.77 282.98,258.00 282.98,258.00
                   282.98,258.00 236.32,258.00 236.32,258.00
                   236.30,258.09 236.35,268.00 236.32,268.00
                   236.32,268.00 282.98,268.00 282.98,268.00
                   282.98,268.00 282.98,359.23 282.98,359.23
                   282.98,359.23 320.92,359.23 320.92,359.23
                   320.92,359.23 320.92,380.76 320.92,380.76
                   320.92,380.76 374.00,380.76 374.00,380.76
                   374.00,380.76 374.00,327.69 374.00,327.69
                   374.00,327.69 320.92,327.69 320.92,327.69
                   320.92,327.69 320.92,349.23 320.92,349.23
                   320.92,349.23 292.98,349.23 292.98,349.23
                   292.98,349.23 292.98,268.00 292.98,268.00
                   292.98,268.00 320.92,268.00 320.92,268.00
                   320.92,268.00 320.92,289.54 320.92,289.54
                   320.92,289.54 374.00,289.54 374.00,289.54
                   374.00,289.54 374.00,236.46 374.00,236.46
                   374.00,236.46 320.92,236.46 320.92,236.46
                   320.92,236.46 320.92,258.00 320.92,258.00
                   320.92,258.00 292.98,258.00 292.98,258.00
                   292.98,258.00 292.98,176.77 292.98,176.77
                   292.98,176.77 320.92,176.77 320.92,176.77
                   320.92,176.77 320.92,198.31 320.92,198.31
                   320.92,198.31 374.00,198.31 374.00,198.31
                   374.00,198.31 374.00,145.24 374.00,145.24
                   374.00,145.24 320.92,145.24 320.92,145.24
                   320.92,145.24 320.92,166.77 320.92,166.77 Z"
        />
        <path
            id="Ico"
            fill="#fff"
            d="M 312.92,159.77
                 C 312.92,159.77 274.98,159.77 274.98,159.77
                   274.98,159.77 274.98,251.00 274.98,251.00
                   274.98,251.00 228.32,251.00 228.32,251.00
                   228.38,251.00 228.38,260.94 228.32,261.00
                   228.32,261.00 274.98,261.00 274.98,261.00
                   274.98,261.00 274.98,352.23 274.98,352.23
                   274.98,352.23 312.92,352.23 312.92,352.23
                   312.92,352.23 312.92,373.76 312.92,373.76
                   312.92,373.76 366.00,373.76 366.00,373.76
                   366.00,373.76 366.00,320.69 366.00,320.69
                   366.00,320.69 312.92,320.69 312.92,320.69
                   312.92,320.69 312.92,342.23 312.92,342.23
                   312.92,342.23 284.98,342.23 284.98,342.23
                   284.98,342.23 284.98,261.00 284.98,261.00
                   284.98,261.00 312.92,261.00 312.92,261.00
                   312.92,261.00 312.92,282.54 312.92,282.54
                   312.92,282.54 366.00,282.54 366.00,282.54
                   366.00,282.54 366.00,229.46 366.00,229.46
                   366.00,229.46 312.92,229.46 312.92,229.46
                   312.92,229.46 312.92,251.00 312.92,251.00
                   312.92,251.00 284.98,251.00 284.98,251.00
                   284.98,251.00 284.98,169.77 284.98,169.77
                   284.98,169.77 312.92,169.77 312.92,169.77
                   312.92,169.77 312.92,191.31 312.92,191.31
                   312.92,191.31 366.00,191.31 366.00,191.31
                   366.00,191.31 366.00,138.24 366.00,138.24
                   366.00,138.24 312.92,138.24 312.92,138.24
                   312.92,138.24 312.92,159.77 312.92,159.77 Z"
        />
        <g transform="translate(78.00 56.00) scale(0.6) rotate(22)">
            <path
                d="M383.9994202,278.4917297v-28.9818573l-26.3045349-4.4810791   c-2.4773254-12.3055878-7.3322144-23.741333-14.0432129-33.8426666l15.4474792-21.79039l-20.4943848-20.4949341   l-21.7909546,15.447998c-10.1013184-6.7114716-21.5359802-11.5664063-33.8426514-14.0442657L278.4906616,144h-28.9829712   l-4.4794769,26.3045349c-12.3061218,2.4778595-23.7423859,7.3327942-33.8437195,14.0442657l-21.7909393-15.447998   l-20.493866,20.4949341l15.447998,21.79039c-6.7109375,10.1013336-11.5658722,21.5370789-14.0442657,33.8426666   l-26.3029327,4.4810791v28.9818573l26.3029327,4.480011c2.4783936,12.3061218,7.3333282,23.7429199,14.0442657,33.8426514   l-15.447998,21.7920227l20.493866,20.4933167l21.7925262-15.447998   c10.0997467,6.7120056,21.5360107,11.5664063,33.8421326,14.044281L249.5076904,384h28.9829712l4.4804993-26.3039856   c12.3066711-2.4778748,23.741333-7.3322754,33.8426514-14.044281l21.7909546,15.447998l20.4943848-20.4933167   l-15.4474792-21.7920227c6.7109985-10.0997314,11.5658875-21.5365295,14.0432129-33.8426514L383.9994202,278.4917297z    M264,313.1525269c-27.1466675,0-49.1531067-22.0053406-49.1531067-49.1525269   c0-27.1461334,22.0064392-49.1519928,49.1531067-49.1519928c27.1460876,0,49.1524963,22.0058594,49.1524963,49.1519928   C313.1524963,291.1471863,291.1460876,313.1525269,264,313.1525269z" opacity="0.3"/><path d="M375.9994202,270.4917297v-28.9818573l-26.3045349-4.4810791   c-2.4773254-12.3055878-7.3322144-23.741333-14.0432129-33.8426666l15.4474792-21.79039l-20.4943848-20.4949341   l-21.7909546,15.447998c-10.1013184-6.7114716-21.5359802-11.5664063-33.8426514-14.0442657L270.4906616,136h-28.9829712   l-4.4794617,26.3045349c-12.3061371,2.4778595-23.7424011,7.3327942-33.8437347,14.0442657l-21.7909393-15.447998   l-20.493866,20.4949341l15.447998,21.79039c-6.7109375,10.1013336-11.5658569,21.5370789-14.0442657,33.8426666   l-26.3029327,4.4810791v28.9818573l26.3029327,4.480011c2.4784088,12.3061218,7.3333282,23.7429199,14.0442657,33.8426514   l-15.447998,21.7920227l20.493866,20.4933167l21.7925262-15.447998   c10.0997467,6.7120056,21.5360107,11.5664063,33.8421478,14.044281L241.5076904,376h28.9829712l4.4804993-26.3039856   c12.3066711-2.4778748,23.741333-7.3322754,33.8426514-14.044281l21.7909546,15.447998l20.4943848-20.4933167   l-15.4474792-21.7920227c6.7109985-10.0997314,11.5658875-21.5365295,14.0432129-33.8426514L375.9994202,270.4917297z    M256,305.1525269c-27.1466675,0-49.1531067-22.0053406-49.1531067-49.1525269   c0-27.1461334,22.0064392-49.1520081,49.1531067-49.1520081c27.1460876,0,49.1524963,22.0058746,49.1524963,49.1520081   C305.1524963,283.1471863,283.1460876,305.1525269,256,305.1525269z" fill="#FFFFFF"
            />
        </g>
    </g>
</svg>

<?xml version="1.0" encoding="UTF-8" standalone="no"?>
<!DOCTYPE svg PUBLIC "-//W3C//DTD SVG 1.1//EN" "http://www.w3.org/Graphics/SVG/1.1/DTD/svg11.dtd">
<svg width="100%" height="100%" viewBox="0 0 512 512" version="1.1" xmlns="http://www.w3.org/2000/svg" xmlns:xlink="http://www.w3.org/1999/xlink" xml:space="preserve" xmlns:serif="http://www.serif.com/" style="fill-rule:evenodd;clip-rule:evenodd;stroke-linejoin:round;stroke-miterlimit:2;">
    <g>
        <g>
            <circle cx="256" cy="256" r="256" style="fill:rgb(174,0,255);"/>
            <path d="M256,469.334C138.368,469.334 42.667,373.632 42.667,256.001C42.667,138.369 138.368,42.667 256,42.667C373.636,42.667 469.333,138.369 469.333,256.001C469.333,373.632 373.636,469.334 256,469.334Z" style="fill:rgb(174,0,255);fill-rule:nonzero;"/>
        </g>
        <path id="Shadow" d="M320.92,166.77L282.98,166.77L282.98,258L236.32,258C236.3,258.09 236.35,268 236.32,268L282.98,268L282.98,359.23L320.92,359.23L320.92,380.76L374,380.76L374,327.69L320.92,327.69L320.92,349.23L292.98,349.23L292.98,268L320.92,268L320.92,289.54L374,289.54L374,236.46L320.92,236.46L320.92,258L292.98,258L292.98,176.77L320.92,176.77L320.92,198.31L374,198.31L374,145.24L320.92,145.24L320.92,166.77Z" style="fill-opacity:0.3;fill-rule:nonzero;"/>
        <path id="Ico" d="M312.92,159.77L274.98,159.77L274.98,251L228.32,251C228.38,251 228.38,260.94 228.32,261L274.98,261L274.98,352.23L312.92,352.23L312.92,373.76L366,373.76L366,320.69L312.92,320.69L312.92,342.23L284.98,342.23L284.98,261L312.92,261L312.92,282.54L366,282.54L366,229.46L312.92,229.46L312.92,251L284.98,251L284.98,169.77L312.92,169.77L312.92,191.31L366,191.31L366,138.24L312.92,138.24L312.92,159.77Z" style="fill:white;fill-rule:nonzero;"/>
        <g transform="matrix(0.55631,0.224764,-0.224764,0.55631,78,56)">
            <path d="M383.999,278.492L383.999,249.51L357.695,245.029C355.218,232.723 350.363,221.287 343.652,211.186L359.099,189.396L338.605,168.901L316.814,184.349C306.712,177.637 295.278,172.782 282.971,170.305L278.491,144L249.508,144L245.028,170.305C232.722,172.782 221.286,177.637 211.184,184.349L189.394,168.901L168.9,189.396L184.348,211.186C177.637,221.287 172.782,232.723 170.303,245.029L144,249.51L144,278.492L170.303,282.972C172.782,295.278 177.637,306.715 184.348,316.814L168.9,338.606L189.394,359.1L211.186,343.652C221.286,350.364 232.722,355.218 245.028,357.696L249.508,384L278.491,384L282.971,357.696C295.278,355.218 306.712,350.364 316.814,343.652L338.605,359.1L359.099,338.606L343.652,316.814C350.363,306.715 355.218,295.278 357.695,282.972L383.999,278.492ZM264,313.153C236.853,313.153 214.847,291.147 214.847,264C214.847,236.854 236.853,214.848 264,214.848C291.146,214.848 313.152,236.854 313.152,264C313.152,291.147 291.146,313.153 264,313.153Z" style="fill-opacity:0.3;fill-rule:nonzero;"/>
            <path d="M375.999,270.492L375.999,241.51L349.695,237.029C347.218,224.723 342.363,213.287 335.652,203.186L351.099,181.396L330.605,160.901L308.814,176.349C298.712,169.637 287.278,164.782 274.971,162.305L270.491,136L241.508,136L237.028,162.305C224.722,164.782 213.286,169.637 203.184,176.349L181.394,160.901L160.9,181.396L176.348,203.186C169.637,213.287 164.782,224.723 162.303,237.029L136,241.51L136,270.492L162.303,274.972C164.782,287.278 169.637,298.715 176.348,308.814L160.9,330.606L181.394,351.1L203.186,335.652C213.286,342.364 224.722,347.218 237.028,349.696L241.508,376L270.491,376L274.971,349.696C287.278,347.218 298.712,342.364 308.814,335.652L330.605,351.1L351.099,330.606L335.652,308.814C342.363,298.715 347.218,287.278 349.695,274.972L375.999,270.492ZM256,305.153C228.853,305.153 206.847,283.147 206.847,256C206.847,228.854 228.853,206.848 256,206.848C283.146,206.848 305.152,228.854 305.152,256C305.152,283.147 283.146,305.153 256,305.153Z" style="fill:white;fill-rule:nonzero;"/>
        </g>
    </g>
</svg>
